X:1
T:Salvete Flores, LM
T:Salvete Flores, LM
T:John Bacchus Dykes, 1875
T:Public Domain Courtesy of the Cyber Hymnal™
C:John Bacchus Dykes, 1875
Z:Public Domain
Z:Courtesy of the Cyber Hymnal™
%%score ( 1 2 ) ( 3 4 )
L:1/8
Q:1/4=103
M:none
K:C
V:1 treble 
V:2 treble 
V:3 bass 
V:4 bass 
V:1
 [CE]2 | [CD]3 [CE] [CF]2 [DF]2 | E2 [FG]2 [EG]2 [CE]2 | [CD]3 [CE] [A,F]2 [B,F]2 | %4
 [CE]2 A2 [EG]2 [EG]2 | [Ec]3 [DB] [CA]2 [EG]2 | [Gd]2 (AB) [DG]2 [B,D]2 | %7
 ([CE][B,D]) ([CE][DF]) [EG]2 [Fc]2 | [Ge]3 [Fd] [Ec]2 |] %9
V:2
 x2 | x8 | x8 | x8 | x2 (FD) x4 | x8 | x2 ^F2 x4 | x8 | x6 |] %9
V:3
 [C,G,]2 | G,3 G, [G,A,]2 [G,B,]2 | [C,C]2 [C,F,]2 [C,G,]2 [E,G,]2 | %3
 [F,A,]3 [E,G,] [D,F,]2 [D,G,]2 | [C,G,]2 (A,B,) C2 [B,,G,]2 | [A,,G,]3 [B,,G,] [C,E,]2 [^C,B,]2 | %6
 [D,B,]2 [D,C]2 [G,B,]2 [G,,G,]2 | [C,G,]2 [C,G,]2 [C,C]2 [A,C]2 | [G,C]2 [G,,B,]2 [C,G,]2 |] %9
V:4
 x2 | G,3 G, x4 | x8 | x8 | x2 C,2 C,2 x2 | x8 | x8 | x8 | x6 |] %9

